X:18
T:Pavane - Mille regretz
R:
C:Tielman Susato
H:
N:p6/pl : p42
B:
O:Flandres
A:
Z:<eric.forgeot@caramail.com> -- http://anamnese.fr.st
M:C|
L:1/4
Q:1/4=125
K:C
V:1
E4 | A2A2 | G3 F/E/ | DCD2 | Cccc | B2A>B | c>BA2 | ^G2 z2 ::
V:2
B4 | A2d2 | B3A | BcA2 | c>def | g2f2 | ee>cd | e2 z2 ::
V:3
e4 | c2f2 | c3d/c/ | Befd | e3 c | dec2 |ABcA | B2 z2 ::
V:4
